icons/seedling-fill.svg

<svg viewBox="0 0 24 24" fill="currentColor" xmlns="http://www.w3.org/2000/svg">
    <path d="M21.998 7V9.5C21.998 13.0899 19.0879 16 15.498 16H12.998V21H10.998V14L11.0169 13.0007C11.2719 9.64413 14.0762 7 17.498 7H21.998ZM5.99805 3C9.0904 3 11.7144 5.00519 12.6408 7.78626C11.1417 9.06119 10.1516 10.9143 10.0144 13.0004L8.99805 13C5.13205 13 1.99805 9.86599 1.99805 6V3H5.99805Z"/>
</svg>

<svg xmlns="http://www.w3.org/2000/svg" viewBox="0 0 24 24">
    <g>
        <path fill="none" d="M0 0H24V24H0z"/>
        <path d="M22 7v2.5c0 3.59-2.91 6.5-6.5 6.5H13v5h-2v-7l.019-1c.255-3.356 3.06-6 6.481-6H22zM6 3c3.092 0 5.716 2.005 6.643 4.786-1.5 1.275-2.49 3.128-2.627 5.214H9c-3.866 0-7-3.134-7-7V3h4z"/>
    </g>
</svg>
